X: 21733
T: THE HIGH ROAD TO FORT AUGUSTUS -- Reel
R: reel
B: K\"ohler's Violin Repository, v.2, 1885 p.173 #3
F: http://www.archive.org/details/klersviolinrepos02rugg
Z: 2012 John Chambers <jc:trillian.mit.edu>
M: C|
L: 1/8
K: Bm
uF |\
CFF^G A2(AF) | A,A, {FED}E2 (CA,)A,E | CFF^G A2(Ac) | AFEC B,/B,/B, {^GF^E}F2 |
CFF^G A2(AF) | A,A, {FED}E2 (CA,)A,E | CFF^G A2(Ac) | AFEC B,/B,/B, {^GF^E}F2 |]
vBFBc dBFd | cAeA cAAc | BFBc dBFd | caec B/B/B {^gfe}f2 |
def^g agfa | efde cAAa | fdec dBcA | FAEC B,/B,/B, {^GF^E}"^Fine."F2 "_D.C."|]

%%sep 2 1 500

